X: 13
T: Kylebrack Rambler, The
C: Finbarr Dwyer
Z: jmeme
S: https://thesession.org/tunes/361#setting47589
R: reel
M: 4/4
L: 1/8
K: Dmix
|:DA,A,/A,/A, DA,=FA,|DA,A,/A,/A, CA,G,A,|DA,A,/A,/A, DA,AG|FDAF GG/G/FG|
Ade/d/^c d=cAB|cGA/B/c GECE|DCA,G, A,DD/D/D|1 E/F/AGE DE/D/CE:|2 E/F/AGE DEFG||
|:ABAG FDD/D/D|dedc AB/A/GA/B/|c2Gc EGce|dced cAGe|
dafd eAA/A/A|^cAA/A/A EA^CA|GEE/E/E CDE/F/G|cAGE DEFG:|
|:ADD/D/D A,DD/D/D|dAA/A/A dcAB|c3B cAGA/B/|cd/c/Bd cAGE|FDD/D/D A,DD/D/D|
dAA/A/A dcAB|1 cd/c/Bd cAGE|CDEC DEFG:|2 c3B cAGE|CDEC DE/D/CE||

